X: 1414
T: O'Rielly's Fancy   #2
R: reel
%S: s:2 b:9(4+5)
B: O'Neill's 1850 #1414
O: O'Reilly
Z: Bob Safranek, rjs@gsp.org
Z: Compacted via repeats and multiple endings [JC]
M: C|
L: 1/8
K: Em
|: E2(EF) GFGE | ^DEFG AFDF | TE^DEF GFGA | ((3Bcd) Ac (BE)E2 :|\
|: BcAc BeeB | cBAc (BE)E2 | BcAc Beef |1 geg^d e2e2 :|2 ((3gab) af e2e2 |]
